Origami/64x64/apps/nasc.svg

<svg width="64" height="64" version="1" xmlns="http://www.w3.org/2000/svg">
 <path d="m4 56v2c0 1.662 1.338 3 3 3h50c1.662 0 3-1.338 3-3v-2c0 1.662-1.338 3-3 3h-50c-1.662 0-3-1.338-3-3z" style="opacity:.2"/>
 <rect transform="matrix(0,-1,-1,0,0,0)" x="-60" y="-60" width="56" height="56" rx="3" ry="3" style="fill:#aedeec"/>
 <path d="m12.0006 19.00006v2.8l0.0112 1.19994 5.988 10-5.9998 10v4h22v-6h-4v2h-14l6-10-6-10h12v2h4v-6h-19.9996z" style="opacity:.2"/>
 <path d="m12.0006 18v2.8l0.0112 1.19994 5.988 10-5.9998 10v4h22v-6h-4v2h-14l6-10-6-10h12v2h4v-6h-19.9996z" style="fill:#e37739"/>
 <path d="m7 4c-1.662 0-3 1.338-3 3v1c0-1.662 1.338-3 3-3h50c1.662 0 3 1.338 3 3v-1c0-1.662-1.338-3-3-3h-50z" style="fill:#ffffff;opacity:.1"/>
 <rect x="41" y="4" width="4" height="56" style="fill:#ffffff"/>
</svg>

<svg xmlns="http://www.w3.org/2000/svg" width="64" height="64" version="1">
 <path style="opacity:0.2" d="m 4,56 0,2 c 0,1.662 1.338,3 3,3 l 50,0 c 1.662,0 3,-1.338 3,-3 l 0,-2 c 0,1.662 -1.338,3 -3,3 L 7,59 C 5.338,59 4,57.662 4,56 Z"/>
 <rect style="fill:#aedeec" width="56" height="56" x="-60" y="-60" rx="3" ry="3" transform="matrix(0,-1,-1,0,0,0)"/>
 <path style="opacity:0.2" d="m 12.0006,19.00006 0,2.8 L 12.0118,23 17.9998,33 12,43 l 0,4 22,0 0,-6 -4,0 0,2 -14,0 6,-10 -6,-10 12,0 0,2 4,0 0,-6 -19.9996,0 z"/>
 <path style="fill:#e37739" d="m 12.0006,18 0,2.8 0.0112,1.19994 5.988,10 -5.9998,10 0,4 22,0 0,-6 -4,0 0,2 -14,0 6,-10 -6,-10 12,0 0,2 4,0 0,-6 -19.9996,0 z"/>
 <path style="opacity:0.1;fill:#ffffff" d="M 7 4 C 5.338 4 4 5.338 4 7 L 4 8 C 4 6.338 5.338 5 7 5 L 57 5 C 58.662 5 60 6.338 60 8 L 60 7 C 60 5.338 58.662 4 57 4 L 7 4 z"/>
 <rect style="fill:#ffffff" width="4" height="56" x="41" y="4"/>
</svg>
